humanity-icon-theme/Humanity/apps/24/gnome-panel-force-quit.svg

<?xml version="1.0" encoding="UTF-8" standalone="no"?>
<!-- Created with Inkscape (http://www.inkscape.org/) -->

<svg
   xmlns:svg="http://www.w3.org/2000/svg"
   xmlns="http://www.w3.org/2000/svg"
   xmlns:xlink="http://www.w3.org/1999/xlink"
   version="1.0"
   width="24"
   height="24"
   id="svg2">
  <defs
     id="defs4">
    <linearGradient
       id="linearGradient6457">
      <stop
         id="stop6459"
         style="stop-color:white;stop-opacity:0.94117647"
         offset="0" />
      <stop
         id="stop6461"
         style="stop-color:white;stop-opacity:0.70588237"
         offset="1" />
    </linearGradient>
    <linearGradient
       id="linearGradient2781">
      <stop
         id="stop2783"
         style="stop-color:#505050;stop-opacity:1"
         offset="0" />
      <stop
         id="stop6301"
         style="stop-color:#6e6e6e;stop-opacity:1"
         offset="0.13216467" />
      <stop
         id="stop2785"
         style="stop-color:#8c8c8c;stop-opacity:1"
         offset="1" />
    </linearGradient>
    <linearGradient
       id="linearGradient4222">
      <stop
         id="stop4224"
         style="stop-color:white;stop-opacity:1"
         offset="0" />
      <stop
         id="stop4226"
         style="stop-color:white;stop-opacity:0"
         offset="1" />
    </linearGradient>
    <linearGradient
       id="linearGradient5048">
      <stop
         id="stop5050"
         style="stop-color:black;stop-opacity:0"
         offset="0" />
      <stop
         id="stop5056"
         style="stop-color:black;stop-opacity:1"
         offset="0.5" />
      <stop
         id="stop5052"
         style="stop-color:black;stop-opacity:0"
         offset="1" />
    </linearGradient>
    <linearGradient
       id="linearGradient5060">
      <stop
         id="stop5062"
         style="stop-color:black;stop-opacity:1"
         offset="0" />
      <stop
         id="stop5064"
         style="stop-color:black;stop-opacity:0"
         offset="1" />
    </linearGradient>
    <linearGradient
       x1="24"
       y1="13"
       x2="24"
       y2="40"
       id="linearGradient5539"
       xlink:href="#linearGradient6457"
       gradientUnits="userSpaceOnUse"
       gradientTransform="matrix(0.5263158,0,0,0.4814815,-0.6315785,1.740741)" />
    <linearGradient
       x1="15.21056"
       y1="8.6471233"
       x2="15.21056"
       y2="18.882378"
       id="linearGradient5542"
       xlink:href="#linearGradient4222"
       gradientUnits="userSpaceOnUse"
       gradientTransform="matrix(0.6129052,0,0,0.5862092,-3.3226315,-2.069023)" />
    <linearGradient
       x1="21.866402"
       y1="8.5763302"
       x2="21.780495"
       y2="39.923653"
       id="linearGradient5545"
       xlink:href="#linearGradient2781"
       gradientUnits="userSpaceOnUse"
       gradientTransform="matrix(0.6363644,0,0,0.6229527,-3.909122,-3.106601)" />
    <radialGradient
       cx="605.71429"
       cy="486.64789"
       r="117.14286"
       fx="605.71429"
       fy="486.64789"
       id="radialGradient5621"
       xlink:href="#linearGradient5060"
       gradientUnits="userSpaceOnUse"
       gradientTransform="matrix(-0.03279365,0,0,0.01647059,23.846113,13.461094)" />
    <radialGradient
       cx="605.71429"
       cy="486.64789"
       r="117.14286"
       fx="605.71429"
       fy="486.64789"
       id="radialGradient5624"
       xlink:href="#linearGradient5060"
       gradientUnits="userSpaceOnUse"
       gradientTransform="matrix(0.03279365,0,0,0.01647059,0.1538923,13.461094)" />
    <linearGradient
       x1="302.85715"
       y1="366.64789"
       x2="302.85715"
       y2="609.50507"
       id="linearGradient5627"
       xlink:href="#linearGradient5048"
       gradientUnits="userSpaceOnUse"
       gradientTransform="matrix(0.03279365,0,0,0.01647059,0.1474384,13.461094)" />
  </defs>
  <g
     id="g5635">
    <g
       id="g5630">
      <path
         d="m 4.09375,19.5 0,4 10.84375,0 -3.90625,-4 -6.9375,0 z m 9.875,0 3.9375,4 2,0 0,-4 -5.9375,0 z"
         id="rect4173"
         style="opacity:0.23613156;fill:url(#linearGradient5627);fill-opacity:1;fill-rule:nonzero;stroke:none;stroke-width:1;marker:none;visibility:visible;display:inline;overflow:visible" />
      <path
         d="m 19.917324,19.500138 c 0,0 0,3.999779 0,3.999779 1.688793,0.0075 4.082677,-0.896147 4.082676,-2.000146 0,-1.104 -1.884564,-1.999633 -4.082676,-1.999633 z"
         id="path5058"
         style="opacity:0.23613156;fill:url(#radialGradient5624);fill-opacity:1;fill-rule:nonzero;stroke:none;stroke-width:1;marker:none;visibility:visible;display:inline;overflow:visible" />
      <path
         d="m 4.0826766,19.500138 c 0,0 0,3.999779 0,3.999779 C 2.3938844,23.507447 2.37155e-8,22.60377 2.37155e-8,21.499771 2.37155e-8,20.395771 1.8845644,19.500138 4.0826766,19.500138 z"
         id="path5018"
         style="opacity:0.23613156;fill:url(#radialGradient5621);fill-opacity:1;fill-rule:nonzero;stroke:none;stroke-width:1;marker:none;visibility:visible;display:inline;overflow:visible" />
    </g>
    <path
       d="m 2.5,2.5 c -0.554,0 -1,0.446 -1,1 l 0,17 c 0,0.554 0.446,1.000001 1,1 l 10.5,0 -2.5625,-2.59375 4.625,-4.25 L 5,6.8125 11.09375,2.5 2.5,2.5 z m 12.125,0 -6.375,4.3125 9.9375,7.78125 -4.6875,4.4375 2.4375,2.46875 5.5625,0 c 0.554,0 1,-0.445999 1,-1 l 0,-17 c 0,-0.554 -0.446,-1 -1,-1 l -6.875,0 z"
       id="rect1887"
       style="fill:url(#linearGradient5545);fill-opacity:1;stroke:#565853;stroke-width:0.99995029;stroke-miterlimit:4;stroke-opacity:1;stroke-dasharray:none" />
    <path
       d="M 3,3.5 C 2.723,3.5 2.5,3.7229978 2.5,4 l 0,16 c 0,0.277002 0.223,0.500001 0.5,0.5 l 9,0 -1.5625,-1.59375 4.625,-4.25 L 5,6.8125 9.6875,3.5 3,3.5 z M 13.15625,3.5 8.25,6.8125 18.1875,14.59375 13.5,19.03125 14.9375,20.5 21,20.5 c 0.277,0 0.500001,-0.222997 0.5,-0.5 l 0,-16 C 21.5,3.7229977 21.277001,3.5 21,3.5 l -7.84375,0 z"
       id="rect2779"
       style="opacity:0.2;fill:none;stroke:url(#linearGradient5542);stroke-width:0.99993587;stroke-miterlimit:4;stroke-opacity:1;stroke-dasharray:none" />
    <path
       d="M 2.5,8 C 2.2229083,8 2,8.223 2,8.5 l 0,12 c 0,0.277 0.2229084,0.500001 0.5,0.5 l 10,0 -2.0625,-2.09375 4.625,-4.25 L 6.53125,8 2.5,8 z M 9.78125,8 18.1875,14.59375 13.5,19.03125 15.4375,21 21.5,21 c 0.277092,0 0.5,-0.222999 0.5,-0.5 l 0,-12 C 22,8.223 21.777092,8 21.5,8 L 9.78125,8 z"
       id="rect6287"
       style="fill:url(#linearGradient5539);fill-opacity:1;stroke:none" />
    <path
       d="m 21,5 c 2.38e-4,0.552214 -0.447547,1 -1,1 -0.552455,0 -1.000241,-0.447786 -1,-1 -2.41e-4,-0.552214 0.447545,-1 1,-1 0.552453,0 1.000238,0.447786 1,1 l 0,0 z"
       id="path6293"
       style="fill:#ffc24c;fill-opacity:1;stroke:none" />
    <path
       d="m 18,5 c 2.38e-4,0.552214 -0.447547,1 -0.999999,1 -0.552456,0 -1.000241,-0.447786 -1,-1 -2.41e-4,-0.552215 0.447544,-1 1,-1 C 17.552453,4 18.000238,4.447785 18,5 l 0,0 z"
       id="path6622"
       style="fill:#ffc24c;fill-opacity:1;stroke:none" />
    <path
       d="m 15.000001,5 c 2.37e-4,0.552214 -0.447547,1 -1,1 -0.552455,0 -1.000241,-0.447786 -1,-1 -2.41e-4,-0.552215 0.447545,-1 1,-1 0.552453,0 1.000237,0.447785 1,1 l 0,0 z"
       id="path6630"
       style="fill:#ffc24c;fill-opacity:1;stroke:none" />
  </g>
</svg>

<?xml version="1.0" encoding="UTF-8" standalone="no"?>
<!-- Created with Inkscape (http://www.inkscape.org/) -->
<svg id="svg2" xmlns="http://www.w3.org/2000/svg" height="24" width="24" version="1.0" xmlns:xlink="http://www.w3.org/1999/xlink">
 <defs id="defs4">
  <linearGradient id="linearGradient5060">
   <stop id="stop5062" offset="0"/>
   <stop id="stop5064" style="stop-opacity:0" offset="1"/>
  </linearGradient>
  <linearGradient id="linearGradient5539" y2="40" gradientUnits="userSpaceOnUse" x2="24" gradientTransform="matrix(.52632 0 0 .48148 -.63158 1.7407)" y1="13" x1="24">
   <stop id="stop6459" style="stop-color:#fff;stop-opacity:.94118" offset="0"/>
   <stop id="stop6461" style="stop-color:#fff;stop-opacity:.70588" offset="1"/>
  </linearGradient>
  <linearGradient id="linearGradient5542" y2="18.882" gradientUnits="userSpaceOnUse" x2="15.211" gradientTransform="matrix(.61291 0 0 .58621 -3.3226 -2.069)" y1="8.6471" x1="15.211">
   <stop id="stop4224" style="stop-color:#fff" offset="0"/>
   <stop id="stop4226" style="stop-color:#fff;stop-opacity:0" offset="1"/>
  </linearGradient>
  <linearGradient id="linearGradient5545" y2="39.924" gradientUnits="userSpaceOnUse" x2="21.78" gradientTransform="matrix(.63636 0 0 .62295 -3.9091 -3.1066)" y1="8.5763" x1="21.866">
   <stop id="stop2783" style="stop-color:#505050" offset="0"/>
   <stop id="stop6301" style="stop-color:#6e6e6e" offset=".13216"/>
   <stop id="stop2785" style="stop-color:#8c8c8c" offset="1"/>
  </linearGradient>
  <radialGradient id="radialGradient5621" xlink:href="#linearGradient5060" gradientUnits="userSpaceOnUse" cy="486.65" cx="605.71" gradientTransform="matrix(-.032794 0 0 .016471 23.846 13.461)" r="117.14"/>
  <radialGradient id="radialGradient5624" xlink:href="#linearGradient5060" gradientUnits="userSpaceOnUse" cy="486.65" cx="605.71" gradientTransform="matrix(.032794 0 0 .016471 .15389 13.461)" r="117.14"/>
  <linearGradient id="linearGradient5627" y2="609.51" gradientUnits="userSpaceOnUse" x2="302.86" gradientTransform="matrix(.032794 0 0 .016471 .14744 13.461)" y1="366.65" x1="302.86">
   <stop id="stop5050" style="stop-opacity:0" offset="0"/>
   <stop id="stop5056" offset=".5"/>
   <stop id="stop5052" style="stop-opacity:0" offset="1"/>
  </linearGradient>
 </defs>
 <g id="g5635">
  <g id="g5630">
   <path id="rect4173" style="opacity:.23613;fill:url(#linearGradient5627)" d="m4.0938 19.5v4h10.844l-3.9062-4h-6.9375zm9.875 0 3.9375 4h2v-4h-5.9375z"/>
   <path id="path5058" style="opacity:.23613;fill:url(#radialGradient5624)" d="m19.917 19.5v3.9998c1.6888 0.0075 4.0827-0.89615 4.0827-2.0001s-1.8846-1.9996-4.0827-1.9996z"/>
   <path id="path5018" style="opacity:.23613;fill:url(#radialGradient5621)" d="m4.0827 19.5v3.9998c-1.6888 0.007-4.0827-0.896-4.0827-2 2.3716e-8 -1.104 1.8846-2 4.0827-2z"/>
  </g>
  <path id="rect1887" style="stroke:#565853;stroke-width:.99995;fill:url(#linearGradient5545)" d="m2.5 2.5c-0.554 0-1 0.446-1 1v17c0 0.554 0.446 1 1 1h10.5l-2.5625-2.5938 4.625-4.25-10.062-7.8435 6.094-4.3125h-8.594zm12.125 0-6.375 4.3125 9.9375 7.7812-4.6875 4.4375 2.4375 2.4688h5.5625c0.554 0 1-0.446 1-1v-17c0-0.554-0.446-1-1-1h-6.875z"/>
  <path id="rect2779" style="opacity:.2;stroke:url(#linearGradient5542);stroke-width:.99994;fill:none" d="m3 3.5c-0.277 0-0.5 0.223-0.5 0.5v16c0 0.277 0.223 0.5 0.5 0.5h9l-1.5625-1.5938 4.625-4.25-10.062-7.8435 4.6875-3.3125h-6.6875zm10.156 0-4.906 3.3125 9.938 7.7815-4.688 4.437 1.438 1.469h6.062c0.277 0 0.5-0.223 0.5-0.5v-16c0-0.277-0.223-0.5-0.5-0.5h-7.8438z"/>
  <path id="rect6287" style="fill:url(#linearGradient5539)" d="m2.5 8c-0.2771 0-0.5 0.223-0.5 0.5v12c0 0.277 0.22291 0.5 0.5 0.5h10l-2.0625-2.0938 4.625-4.25-8.5308-6.656h-4.0312zm7.2812 0 8.4068 6.594-4.688 4.437 1.938 1.969h6.062c0.27709 0 0.5-0.223 0.5-0.5v-12c0-0.277-0.223-0.5-0.5-0.5h-11.719z"/>
  <path id="path6293" style="fill:#ffc24c" d="m21 5c0.000238 0.55221-0.44755 1-1 1-0.55246 0-1.0002-0.44779-1-1-0.000241-0.55221 0.44754-1 1-1 0.55245 0 1.0002 0.44779 1 1z"/>
  <path id="path6622" style="fill:#ffc24c" d="m18 5c0.000238 0.55221-0.44755 1-1 1-0.55246 0-1.0002-0.44779-1-1-0.000241-0.55222 0.44754-1 1-1 0.552 0 1 0.4478 1 1z"/>
  <path id="path6630" style="fill:#ffc24c" d="m15 5c0.000237 0.55221-0.44755 1-1 1-0.55246 0-1.0002-0.44779-1-1-0.000241-0.55222 0.44754-1 1-1 0.55245 0 1.0002 0.44778 1 1z"/>
 </g>
</svg>
